X:1
T: Bonnie Brinks of Balmoral
C:
R:Reel
Q: 232
K:D
M:4/4
L:1/8
|:A|FD F1/2G1/2A d2 AF|BG AF GE EG|FD F1/2G1/2A d2 Ag|fa eg fd dA|
FD F1/2G1/2A d2 AF|BG AF GE EG|FD F1/2G1/2A d2 Ag|fa eg fd dg|
fd ad cd eg|fd af ge eg|fd ad cd eg|fa eg fd dg|
fd ad cd eg|fd af ge eg|fd ec dB AG|FA ge fd d:|
